assets/1. F-P/Oil drum/Color/Oil.Drum-color.svg

<svg width="100%" height="100%" viewBox="0 0 32 32" fill="none" xmlns="http://www.w3.org/2000/svg">
<path d="M25 5.95557H7V27.9556H25V5.95557Z" fill="url(#paint0_linear_18_11874)"/>
<path d="M23.02 1.95557H19.99C19.44 1.95557 19 2.39557 19 2.93557V3.95557H24V2.93557C24 2.39557 23.56 1.95557 23.02 1.95557Z" fill="url(#paint1_linear_18_11874)"/>
<path d="M23.02 1.95557H19.99C19.44 1.95557 19 2.39557 19 2.93557V3.95557H24V2.93557C24 2.39557 23.56 1.95557 23.02 1.95557Z" fill="url(#paint2_linear_18_11874)"/>
<path d="M23.02 1.95557H19.99C19.44 1.95557 19 2.39557 19 2.93557V3.95557H24V2.93557C24 2.39557 23.56 1.95557 23.02 1.95557Z" fill="url(#paint3_radial_18_11874)"/>
<path d="M23.02 1.95557H19.99C19.44 1.95557 19 2.39557 19 2.93557V3.95557H24V2.93557C24 2.39557 23.56 1.95557 23.02 1.95557Z" fill="url(#paint4_radial_18_11874)"/>
<path d="M24 5.95557H22V27.9556H24V5.95557Z" fill="url(#paint5_linear_18_11874)"/>
<path d="M21 5.95557H20V27.9556H21V5.95557Z" fill="url(#paint6_linear_18_11874)"/>
<g filter="url(#filter0_f_18_11874)">
<rect x="7.25" y="13.7057" width="17.5" height="0.374969" fill="#3C62A7"/>
</g>
<g filter="url(#filter1_f_18_11874)">
<rect x="7.25" y="5.69006" width="17.5" height="0.374969" fill="#3C62A7"/>
</g>
<g filter="url(#filter2_f_18_11874)">
<rect x="7.25" y="21.6823" width="17.5" height="0.374969" fill="#3C62A7"/>
</g>
<g filter="url(#filter3_f_18_11874)">
<rect x="7.25" y="27.8541" width="17.5" height="0.374969" fill="#3C62A7"/>
</g>
<path d="M25 29.9556H7C6.45 29.9556 6 29.5056 6 28.9556C6 28.4056 6.45 27.9556 7 27.9556H25C25.55 27.9556 26 28.4056 26 28.9556C26 29.5056 25.55 29.9556 25 29.9556Z" fill="url(#paint7_linear_18_11874)"/>
<path d="M25 29.9556H7C6.45 29.9556 6 29.5056 6 28.9556C6 28.4056 6.45 27.9556 7 27.9556H25C25.55 27.9556 26 28.4056 26 28.9556C26 29.5056 25.55 29.9556 25 29.9556Z" fill="url(#paint8_linear_18_11874)"/>
<path d="M25 29.9556H7C6.45 29.9556 6 29.5056 6 28.9556C6 28.4056 6.45 27.9556 7 27.9556H25C25.55 27.9556 26 28.4056 26 28.9556C26 29.5056 25.55 29.9556 25 29.9556Z" fill="url(#paint9_radial_18_11874)"/>
<path d="M25 5.95557H7C6.45 5.95557 6 5.50557 6 4.95557C6 4.40557 6.45 3.95557 7 3.95557H25C25.55 3.95557 26 4.40557 26 4.95557C26 5.50557 25.55 5.95557 25 5.95557Z" fill="url(#paint10_linear_18_11874)"/>
<path d="M25 5.95557H7C6.45 5.95557 6 5.50557 6 4.95557C6 4.40557 6.45 3.95557 7 3.95557H25C25.55 3.95557 26 4.40557 26 4.95557C26 5.50557 25.55 5.95557 25 5.95557Z" fill="url(#paint11_linear_18_11874)"/>
<path d="M25 5.95557H7C6.45 5.95557 6 5.50557 6 4.95557C6 4.40557 6.45 3.95557 7 3.95557H25C25.55 3.95557 26 4.40557 26 4.95557C26 5.50557 25.55 5.95557 25 5.95557Z" fill="url(#paint12_radial_18_11874)"/>
<path d="M25 13.9556H7C6.45 13.9556 6 13.5056 6 12.9556C6 12.4056 6.45 11.9556 7 11.9556H25C25.55 11.9556 26 12.4056 26 12.9556C26 13.5056 25.55 13.9556 25 13.9556Z" fill="url(#paint13_linear_18_11874)"/>
<path d="M25 13.9556H7C6.45 13.9556 6 13.5056 6 12.9556C6 12.4056 6.45 11.9556 7 11.9556H25C25.55 11.9556 26 12.4056 26 12.9556C26 13.5056 25.55 13.9556 25 13.9556Z" fill="url(#paint14_linear_18_11874)"/>
<path d="M25 13.9556H7C6.45 13.9556 6 13.5056 6 12.9556C6 12.4056 6.45 11.9556 7 11.9556H25C25.55 11.9556 26 12.4056 26 12.9556C26 13.5056 25.55 13.9556 25 13.9556Z" fill="url(#paint15_radial_18_11874)"/>
<path d="M25 21.9556H7C6.45 21.9556 6 21.5056 6 20.9556C6 20.4056 6.45 19.9556 7 19.9556H25C25.55 19.9556 26 20.4056 26 20.9556C26 21.5056 25.55 21.9556 25 21.9556Z" fill="url(#paint16_linear_18_11874)"/>
<path d="M25 21.9556H7C6.45 21.9556 6 21.5056 6 20.9556C6 20.4056 6.45 19.9556 7 19.9556H25C25.55 19.9556 26 20.4056 26 20.9556C26 21.5056 25.55 21.9556 25 21.9556Z" fill="url(#paint17_linear_18_11874)"/>
<path d="M25 21.9556H7C6.45 21.9556 6 21.5056 6 20.9556C6 20.4056 6.45 19.9556 7 19.9556H25C25.55 19.9556 26 20.4056 26 20.9556C26 21.5056 25.55 21.9556 25 21.9556Z" fill="url(#paint18_radial_18_11874)"/>
<defs>
<filter id="filter0_f_18_11874" x="6.75" y="13.2057" width="18.5" height="1.375" filterUnits="userSpaceOnUse" color-interpolation-filters="sRGB">
<feFlood flood-opacity="0" result="BackgroundImageFix"/>
<feBlend mode="normal" in="SourceGraphic" in2="BackgroundImageFix" result="shape"/>
<feGaussianBlur stdDeviation="0.25" result="effect1_foregroundBlur_18_11874"/>
</filter>
<filter id="filter1_f_18_11874" x="6.75" y="5.19006" width="18.5" height="1.375" filterUnits="userSpaceOnUse" color-interpolation-filters="sRGB">
<feFlood flood-opacity="0" result="BackgroundImageFix"/>
<feBlend mode="normal" in="SourceGraphic" in2="BackgroundImageFix" result="shape"/>
<feGaussianBlur stdDeviation="0.25" result="effect1_foregroundBlur_18_11874"/>
</filter>
<filter id="filter2_f_18_11874" x="6.75" y="21.1823" width="18.5" height="1.375" filterUnits="userSpaceOnUse" color-interpolation-filters="sRGB">
<feFlood flood-opacity="0" result="BackgroundImageFix"/>
<feBlend mode="normal" in="SourceGraphic" in2="BackgroundImageFix" result="shape"/>
<feGaussianBlur stdDeviation="0.25" result="effect1_foregroundBlur_18_11874"/>
</filter>
<filter id="filter3_f_18_11874" x="6.75" y="27.3541" width="18.5" height="1.375" filterUnits="userSpaceOnUse" color-interpolation-filters="sRGB">
<feFlood flood-opacity="0" result="BackgroundImageFix"/>
<feBlend mode="normal" in="SourceGraphic" in2="BackgroundImageFix" result="shape"/>
<feGaussianBlur stdDeviation="0.25" result="effect1_foregroundBlur_18_11874"/>
</filter>
<linearGradient id="paint0_linear_18_11874" x1="7.0021" y1="16.9556" x2="25" y2="16.9556" gradientUnits="userSpaceOnUse">
<stop stop-color="#3974A8"/>
<stop offset="0.176987" stop-color="#448FDD"/>
<stop offset="1" stop-color="#5998E8"/>
</linearGradient>
<linearGradient id="paint1_linear_18_11874" x1="19.0021" y1="2.95557" x2="24.5625" y2="2.95557" gradientUnits="userSpaceOnUse">
<stop stop-color="#463B5E"/>
<stop offset="1" stop-color="#4E4B54"/>
</linearGradient>
<linearGradient id="paint2_linear_18_11874" x1="24" y1="3.95557" x2="23.2466" y2="3.95557" gradientUnits="userSpaceOnUse">
<stop stop-color="#747374"/>
<stop offset="1" stop-color="#747374" stop-opacity="0"/>
</linearGradient>
<radialGradient id="paint3_radial_18_11874" cx="0" cy="0" r="1" gradientUnits="userSpaceOnUse" gradientTransform="translate(23.8765 2.34932) rotate(140.194) scale(0.702741 0.808984)">
<stop stop-color="#69696A"/>
<stop offset="1" stop-color="#69696A" stop-opacity="0"/>
</radialGradient>
<radialGradient id="paint4_radial_18_11874" cx="0" cy="0" r="1" gradientUnits="userSpaceOnUse" gradientTransform="translate(20.7873 2.53927) scale(2.81927 0.440247)">
<stop stop-color="#5C4F6B"/>
<stop offset="0.639752" stop-color="#5C4F6B" stop-opacity="0"/>
</radialGradient>
<linearGradient id="paint5_linear_18_11874" x1="24.4062" y1="16.9318" x2="22.5" y2="16.9318" gradientUnits="userSpaceOnUse">
<stop stop-color="#72FBFF"/>
<stop offset="1" stop-color="#65E0FF"/>
</linearGradient>
<linearGradient id="paint6_linear_18_11874" x1="21" y1="27.9556" x2="21" y2="5.95557" gradientUnits="userSpaceOnUse">
<stop stop-color="#53BDFE"/>
<stop offset="1" stop-color="#55C0FA"/>
</linearGradient>
<linearGradient id="paint7_linear_18_11874" x1="26.0021" y1="28.9556" x2="6.0021" y2="28.9556" gradientUnits="userSpaceOnUse">
<stop stop-color="#4285D9"/>
<stop offset="1" stop-color="#3E409A"/>
</linearGradient>
<linearGradient id="paint8_linear_18_11874" x1="16" y1="30.4556" x2="16" y2="29.2056" gradientUnits="userSpaceOnUse">
<stop stop-color="#373490"/>
<stop offset="1" stop-color="#373490" stop-opacity="0"/>
</linearGradient>
<radialGradient id="paint9_radial_18_11874" cx="0" cy="0" r="1" gradientUnits="userSpaceOnUse" gradientTransform="translate(22.75 28.6118) rotate(90) scale(0.656247 10.5757)">
<stop stop-color="#71A2EE"/>
<stop offset="1" stop-color="#71A2EE" stop-opacity="0"/>
</radialGradient>
<linearGradient id="paint10_linear_18_11874" x1="26.0021" y1="4.95557" x2="6.0021" y2="4.95557" gradientUnits="userSpaceOnUse">
<stop stop-color="#4285D9"/>
<stop offset="1" stop-color="#3E409A"/>
</linearGradient>
<linearGradient id="paint11_linear_18_11874" x1="16" y1="6.45555" x2="16" y2="5.20555" gradientUnits="userSpaceOnUse">
<stop stop-color="#373490"/>
<stop offset="1" stop-color="#373490" stop-opacity="0"/>
</linearGradient>
<radialGradient id="paint12_radial_18_11874" cx="0" cy="0" r="1" gradientUnits="userSpaceOnUse" gradientTransform="translate(22.75 4.6118) rotate(90) scale(0.656247 10.5757)">
<stop stop-color="#71A2EE"/>
<stop offset="1" stop-color="#71A2EE" stop-opacity="0"/>
</radialGradient>
<linearGradient id="paint13_linear_18_11874" x1="26.0021" y1="12.9556" x2="6.0021" y2="12.9556" gradientUnits="userSpaceOnUse">
<stop stop-color="#4285D9"/>
<stop offset="1" stop-color="#3E409A"/>
</linearGradient>
<linearGradient id="paint14_linear_18_11874" x1="16" y1="14.4556" x2="16" y2="13.2056" gradientUnits="userSpaceOnUse">
<stop stop-color="#373490"/>
<stop offset="1" stop-color="#373490" stop-opacity="0"/>
</linearGradient>
<radialGradient id="paint15_radial_18_11874" cx="0" cy="0" r="1" gradientUnits="userSpaceOnUse" gradientTransform="translate(22.75 12.6118) rotate(90) scale(0.656247 10.5757)">
<stop stop-color="#71A2EE"/>
<stop offset="1" stop-color="#71A2EE" stop-opacity="0"/>
</radialGradient>
<linearGradient id="paint16_linear_18_11874" x1="26.0021" y1="20.9556" x2="6.0021" y2="20.9556" gradientUnits="userSpaceOnUse">
<stop stop-color="#4285D9"/>
<stop offset="1" stop-color="#3E409A"/>
</linearGradient>
<linearGradient id="paint17_linear_18_11874" x1="16" y1="22.4556" x2="16" y2="21.2056" gradientUnits="userSpaceOnUse">
<stop stop-color="#373490"/>
<stop offset="1" stop-color="#373490" stop-opacity="0"/>
</linearGradient>
<radialGradient id="paint18_radial_18_11874" cx="0" cy="0" r="1" gradientUnits="userSpaceOnUse" gradientTransform="translate(22.75 20.6118) rotate(90) scale(0.656247 10.5757)">
<stop stop-color="#71A2EE"/>
<stop offset="1" stop-color="#71A2EE" stop-opacity="0"/>
</radialGradient>
</defs>
</svg>

<svg width="100%" height="100%" viewBox="0 0 32 32" xmlns="http://www.w3.org/2000/svg"><path fill="url(#a)" d="M25 5.956H7v22h18z"/><path fill="url(#b)" d="M23.02 1.956h-3.03c-.55 0-.99.44-.99.98v1.02h5v-1.02c0-.54-.44-.98-.98-.98"/><path fill="url(#c)" d="M23.02 1.956h-3.03c-.55 0-.99.44-.99.98v1.02h5v-1.02c0-.54-.44-.98-.98-.98"/><path fill="url(#d)" d="M23.02 1.956h-3.03c-.55 0-.99.44-.99.98v1.02h5v-1.02c0-.54-.44-.98-.98-.98"/><path fill="url(#e)" d="M23.02 1.956h-3.03c-.55 0-.99.44-.99.98v1.02h5v-1.02c0-.54-.44-.98-.98-.98"/><path fill="url(#f)" d="M24 5.956h-2v22h2z"/><path fill="url(#g)" d="M21 5.956h-1v22h1z"/><g filter="url(#h)"><path fill="#3C62A7" d="M7.25 13.706h17.5v.375H7.25z"/></g><g filter="url(#i)"><path fill="#3C62A7" d="M7.25 5.69h17.5v.375H7.25z"/></g><g filter="url(#j)"><path fill="#3C62A7" d="M7.25 21.682h17.5v.375H7.25z"/></g><g filter="url(#k)"><path fill="#3C62A7" d="M7.25 27.854h17.5v.375H7.25z"/></g><path fill="url(#l)" d="M25 29.956H7c-.55 0-1-.45-1-1s.45-1 1-1h18c.55 0 1 .45 1 1s-.45 1-1 1"/><path fill="url(#m)" d="M25 29.956H7c-.55 0-1-.45-1-1s.45-1 1-1h18c.55 0 1 .45 1 1s-.45 1-1 1"/><path fill="url(#n)" d="M25 29.956H7c-.55 0-1-.45-1-1s.45-1 1-1h18c.55 0 1 .45 1 1s-.45 1-1 1"/><path fill="url(#o)" d="M25 5.956H7c-.55 0-1-.45-1-1s.45-1 1-1h18c.55 0 1 .45 1 1s-.45 1-1 1"/><path fill="url(#p)" d="M25 5.956H7c-.55 0-1-.45-1-1s.45-1 1-1h18c.55 0 1 .45 1 1s-.45 1-1 1"/><path fill="url(#q)" d="M25 5.956H7c-.55 0-1-.45-1-1s.45-1 1-1h18c.55 0 1 .45 1 1s-.45 1-1 1"/><path fill="url(#r)" d="M25 13.956H7c-.55 0-1-.45-1-1s.45-1 1-1h18c.55 0 1 .45 1 1s-.45 1-1 1"/><path fill="url(#s)" d="M25 13.956H7c-.55 0-1-.45-1-1s.45-1 1-1h18c.55 0 1 .45 1 1s-.45 1-1 1"/><path fill="url(#t)" d="M25 13.956H7c-.55 0-1-.45-1-1s.45-1 1-1h18c.55 0 1 .45 1 1s-.45 1-1 1"/><path fill="url(#u)" d="M25 21.956H7c-.55 0-1-.45-1-1s.45-1 1-1h18c.55 0 1 .45 1 1s-.45 1-1 1"/><path fill="url(#v)" d="M25 21.956H7c-.55 0-1-.45-1-1s.45-1 1-1h18c.55 0 1 .45 1 1s-.45 1-1 1"/><path fill="url(#w)" d="M25 21.956H7c-.55 0-1-.45-1-1s.45-1 1-1h18c.55 0 1 .45 1 1s-.45 1-1 1"/><defs><linearGradient id="a" x1="7.002" x2="25" y1="16.956" y2="16.956" gradientUnits="userSpaceOnUse"><stop stop-color="#3974A8"/><stop offset=".177" stop-color="#448FDD"/><stop offset="1" stop-color="#5998E8"/></linearGradient><linearGradient id="b" x1="19.002" x2="24.563" y1="2.956" y2="2.956" gradientUnits="userSpaceOnUse"><stop stop-color="#463B5E"/><stop offset="1" stop-color="#4E4B54"/></linearGradient><linearGradient id="c" x1="24" x2="23.247" y1="3.956" y2="3.956" gradientUnits="userSpaceOnUse"><stop stop-color="#747374"/><stop offset="1" stop-color="#747374" stop-opacity="0"/></linearGradient><linearGradient id="f" x1="24.406" x2="22.5" y1="16.932" y2="16.932" gradientUnits="userSpaceOnUse"><stop stop-color="#72FBFF"/><stop offset="1" stop-color="#65E0FF"/></linearGradient><linearGradient id="g" x1="21" x2="21" y1="27.956" y2="5.956" gradientUnits="userSpaceOnUse"><stop stop-color="#53BDFE"/><stop offset="1" stop-color="#55C0FA"/></linearGradient><linearGradient id="l" x1="26.002" x2="6.002" y1="28.956" y2="28.956" gradientUnits="userSpaceOnUse"><stop stop-color="#4285D9"/><stop offset="1" stop-color="#3E409A"/></linearGradient><linearGradient id="m" x1="16" x2="16" y1="30.456" y2="29.206" gradientUnits="userSpaceOnUse"><stop stop-color="#373490"/><stop offset="1" stop-color="#373490" stop-opacity="0"/></linearGradient><linearGradient id="o" x1="26.002" x2="6.002" y1="4.956" y2="4.956" gradientUnits="userSpaceOnUse"><stop stop-color="#4285D9"/><stop offset="1" stop-color="#3E409A"/></linearGradient><linearGradient id="p" x1="16" x2="16" y1="6.456" y2="5.206" gradientUnits="userSpaceOnUse"><stop stop-color="#373490"/><stop offset="1" stop-color="#373490" stop-opacity="0"/></linearGradient><linearGradient id="r" x1="26.002" x2="6.002" y1="12.956" y2="12.956" gradientUnits="userSpaceOnUse"><stop stop-color="#4285D9"/><stop offset="1" stop-color="#3E409A"/></linearGradient><linearGradient id="s" x1="16" x2="16" y1="14.456" y2="13.206" gradientUnits="userSpaceOnUse"><stop stop-color="#373490"/><stop offset="1" stop-color="#373490" stop-opacity="0"/></linearGradient><linearGradient id="u" x1="26.002" x2="6.002" y1="20.956" y2="20.956" gradientUnits="userSpaceOnUse"><stop stop-color="#4285D9"/><stop offset="1" stop-color="#3E409A"/></linearGradient><linearGradient id="v" x1="16" x2="16" y1="22.456" y2="21.206" gradientUnits="userSpaceOnUse"><stop stop-color="#373490"/><stop offset="1" stop-color="#373490" stop-opacity="0"/></linearGradient><radialGradient id="d" cx="0" cy="0" r="1" gradientTransform="rotate(140.194 11.513 5.497)scale(.70274 .80899)" gradientUnits="userSpaceOnUse"><stop stop-color="#69696A"/><stop offset="1" stop-color="#69696A" stop-opacity="0"/></radialGradient><radialGradient id="e" cx="0" cy="0" r="1" gradientTransform="matrix(2.81927 0 0 .44025 20.787 2.54)" gradientUnits="userSpaceOnUse"><stop stop-color="#5C4F6B"/><stop offset=".64" stop-color="#5C4F6B" stop-opacity="0"/></radialGradient><radialGradient id="n" cx="0" cy="0" r="1" gradientTransform="matrix(0 .65625 -10.5757 0 22.75 28.612)" gradientUnits="userSpaceOnUse"><stop stop-color="#71A2EE"/><stop offset="1" stop-color="#71A2EE" stop-opacity="0"/></radialGradient><radialGradient id="q" cx="0" cy="0" r="1" gradientTransform="matrix(0 .65625 -10.5757 0 22.75 4.612)" gradientUnits="userSpaceOnUse"><stop stop-color="#71A2EE"/><stop offset="1" stop-color="#71A2EE" stop-opacity="0"/></radialGradient><radialGradient id="t" cx="0" cy="0" r="1" gradientTransform="matrix(0 .65625 -10.5757 0 22.75 12.612)" gradientUnits="userSpaceOnUse"><stop stop-color="#71A2EE"/><stop offset="1" stop-color="#71A2EE" stop-opacity="0"/></radialGradient><radialGradient id="w" cx="0" cy="0" r="1" gradientTransform="matrix(0 .65625 -10.5757 0 22.75 20.612)" gradientUnits="userSpaceOnUse"><stop stop-color="#71A2EE"/><stop offset="1" stop-color="#71A2EE" stop-opacity="0"/></radialGradient><filter id="h" width="18.5" height="1.375" x="6.75" y="13.206" color-interpolation-filters="sRGB" filterUnits="userSpaceOnUse"><feFlood flood-opacity="0" result="BackgroundImageFix"/><feBlend in="SourceGraphic" in2="BackgroundImageFix" result="shape"/><feGaussianBlur result="effect1_foregroundBlur_18_11874" stdDeviation=".25"/></filter><filter id="i" width="18.5" height="1.375" x="6.75" y="5.19" color-interpolation-filters="sRGB" filterUnits="userSpaceOnUse"><feFlood flood-opacity="0" result="BackgroundImageFix"/><feBlend in="SourceGraphic" in2="BackgroundImageFix" result="shape"/><feGaussianBlur result="effect1_foregroundBlur_18_11874" stdDeviation=".25"/></filter><filter id="j" width="18.5" height="1.375" x="6.75" y="21.182" color-interpolation-filters="sRGB" filterUnits="userSpaceOnUse"><feFlood flood-opacity="0" result="BackgroundImageFix"/><feBlend in="SourceGraphic" in2="BackgroundImageFix" result="shape"/><feGaussianBlur result="effect1_foregroundBlur_18_11874" stdDeviation=".25"/></filter><filter id="k" width="18.5" height="1.375" x="6.75" y="27.354" color-interpolation-filters="sRGB" filterUnits="userSpaceOnUse"><feFlood flood-opacity="0" result="BackgroundImageFix"/><feBlend in="SourceGraphic" in2="BackgroundImageFix" result="shape"/><feGaussianBlur result="effect1_foregroundBlur_18_11874" stdDeviation=".25"/></filter></defs></svg>
